X: 105
T:Missa Mon seul plaisir / Agnus Dei
N: Derived from Jos0902e-Missa_Mon_seul_plaisir-Agnus.krn
C: Josquin des Prez
%%abc-version 2.0
%%abcx-abcm2ps-target-version 5.9.1 (29 Sep 2008)
%%abc-creator hum2abc beta
%%abcx-conversion-date 2019/02/12 16:15:43
%%abc-edited-by Jesse Rodin
%%abc-edited-by Reinier Valk; Victoria Chang 2012/03/28
%%abcx-initial-encoding-date 2012/03/28/
%%humdrum-veritas 10275365
%%humdrum-veritas-data 2320378598
%%linebreak <none>
%%barnumbers 0
L: 1/4
M: 2/1
Q: 1/2=120
%%staves {1 2}
V: 1 clef=treble-8
V: 2 clef=bass
K: C
[V:1] z8 | 
[V:2] G,8 | 
[V:1] z8 | 
[V:2] D,4D,4 | 
[V:1] G8 | 
[V:2] E,4C,4 | 
[V:1] G4F4 | 
[V:2] D,8 | 
[V:1] G3AB2c2- | 
[V:2] C,4G,2F,2- | 
[V:1] cBAGA4 | 
[V:2] F,2G,2D,4 | 
[V:1] G8- | 
[V:2] G,,2C,2B,,2C,2- | 
[V:1] G8 | 
[V:2] C,D,E,F,G,3F, | 
[V:1] z8 | 
[V:2] E,3D,/C,/D,4 | 
[V:1] z8 | 
[V:2] C,3D,E,2F,2 | 
[V:1] c8- | 
[V:2] E,2F,4E,D, | 
[V:1] c4B2d2 | 
[V:2] C,2B,,A,,G,,2G,2 | 
[V:1] c2A2B4 | 
[V:2] A,2F,2E,4 | 
[V:1] A8 | 
[V:2] A,,4z2A,,2 | 
[V:1] z4A2B2 | 
[V:2] D,3E,F,2G,2 | 
[V:1] c2B2GABc | 
[V:2] C,2G,4F,E, | 
[V:1] d2G4F2 | 
[V:2] D,2C,2D,4 | 
[V:1] G4c4 | 
[V:2] C,4z2C,2 | 
[V:1] B4c4 | 
[V:2] G,4F,2A,2 | 
[V:1] d3cd4 | 
[V:2] G,3A,G,2D,2 | 
[V:1] cBAGA4 | 
[V:2] F,2G,2D,4 | 
[V:1] G4z4 | 
[V:2] G,,2C,4B,,2 | 
[V:1] c6B2 | 
[V:2] C,3D,E,F,G,2 | 
[V:1] A4G4 | 
[V:2] z2F,2G,2E,2 | 
[V:1] A4B4 | 
[V:2] F,4E,4 | 
[V:1] A2e4d2 | 
[V:2] z8 | 
[V:1] c2A2B4 | 
[V:2] z8 | 
[V:1] A4z4 | 
[V:2] z4z2A,2- | 
[V:1] z8 | 
[V:2] A,G,F,E,D,2A,2 | 
[V:1] z8 | 
[V:2] B,2A,2G,2F,E, | 
[V:1] z8 | 
[V:2] D,2C,2E,3F, | 
[V:1] z8 | 
[V:2] G,4z2C,D, | 
[V:1] z8 | 
[V:2] E,F,G,E,A,3G, | 
[V:1] z8 | 
[V:2] F,2E,2D,4 | 
[V:1] z8 | 
[V:2] C,4z2F,2- | 
[V:1] c8- | 
[V:2] F,2E,D,C,4- | 
[V:1] c4d2e2 | 
[V:2] C,2B,,A,,G,,2C,2 | 
[V:1] d2c2d4- | 
[V:2] B,,2E,2D,2F,2- | 
[V:1] d2G2A4 | 
[V:2] F,2E,2D,4 | 
[V:1] G8 | 
[V:2] G,,4z2G,2 | 
[V:1] z8 | 
[V:2] G,3F,E,2D,2 | 
[V:1] z2d2e3d | 
[V:2] C,2B,,2A,,4 | 
[V:1] c2B2A4 | 
[V:2] z2E,2F,3E, | 
[V:1] z4A3G | 
[V:2] D,2C,2D,4 | 
[V:1] F2E2D4 | 
[V:2] z2A,,2D,3C, | 
[V:1] z4d4 | 
[V:2] B,,2A,,2G,,2B,,2 | 
[V:1] e3dc2B2 | 
[V:2] A,,6E,2 | 
[V:1] A3GF2G2 | 
[V:2] F,2C,2D,2G,,2 | 
[V:1] E4D4 | 
[V:2] A,,4D,3G,, | 
[V:1] z2G2A2B2 | 
[V:2] G,,2E,2F,2D,2 | 
[V:1] c3AB2A2 | 
[V:2] C,3F,E,2A,,2 | 
[V:1] B2c2d4 | 
[V:2] E,4D,2F,2 | 
[V:1] G4A4- | 
[V:2] E,4D,4 | 
[V:1] A4z2A2 | 
[V:2] A,,3_B,,C,3B,,/A,,/ | 
[V:1] B2c2d2D2 | 
[V:2] G,,2C,2B,,4 | 
[V:1] E2F2G2A2 | 
[V:2] A,,2D,2C,2F,2 | 
[V:1] B2c2A4 | 
[V:2] E,2C,2D,4 | 
[V:1] G2B2B2B2 | 
[V:2] G,,4z2G,,2 | 
[V:1] c2A4G2- | 
[V:2] C,4B,,2B,,2 | 
[V:1] GFFEG2A2 | 
[V:2] A,,4G,,2F,2 | 
[V:1] B2c2A4 | 
[V:2] G,2C,2D,4 | 
[V:1] G8 |]  
[V:2] !fermata!G,,8 |]  



